ion/skull.svg

<svg viewBox="0 0 512 512" xmlns="http://www.w3.org/2000/svg"><path d="M402 76.94C362.61 37.63 310.78 16 256 16h-.37v0C140.89 16.2 47.99 109.26 48 224v100.67l-.001-.001c-.13 32.76 19.82 62.26 50.29 74.33l23.71 9.42h-.001c5.03 1.99 8.7 6.41 9.75 11.72l10 50.13v-.001c3.02 14.93 16.13 25.69 31.37 25.73h10.88v0c4.41 0 8-3.59 8-8v-39.55c0-8.61 6.62-16 15.23-16.43v0c8.82-.43 16.32 6.38 16.75 15.21 .01.25.01.51.01.76v40 0c0 4.41 3.58 8 8 8v0 0c4.41 0 8-3.59 8-8v-39.55c0-8.61 6.62-16 15.23-16.43v0c8.82-.43 16.32 6.38 16.75 15.21 .01.25.01.51.01.76v40 0c0 4.41 3.58 8 8 8v0 0c4.41 0 8-3.59 8-8v-39.55c0-8.61 6.62-16 15.23-16.43v0c8.82-.43 16.32 6.38 16.75 15.21 .01.25.01.51.01.76v40 0c0 4.41 3.58 8 8 8h10.88 -.001c15.24-.04 28.35-10.79 31.38-25.72l10-50.14v0c1.05-5.31 4.72-9.71 9.74-11.72l23.71-9.42v0c30.46-12.07 50.41-41.57 50.29-74.33v-99c0-56-22-108.81-62-148.73ZM171.66 335.88v0c-30.87 2.02-57.52-21.36-59.55-52.22 -2.03-30.87 21.35-57.52 52.22-59.55 30.86-2.03 57.51 21.35 59.54 52.22 .15 2.43.15 4.88 0 7.32v0c-1.84 28.04-24.18 50.38-52.22 52.22ZM281 397.25v0c-2.76 1.83-6 2.79-9.3 2.75h-31.4v0c-3.3.03-6.54-.92-9.28-2.75v0c-5.49-3.73-8.12-10.45-6.6-16.9l15.91-47.6C243 326 247.25 321 254 320.13c8.26-1 14 2.87 17.61 12.22l16 48v0c1.51 6.45-1.12 13.18-6.61 16.9Zm66.68-61.37v0c-30.87 2.02-57.52-21.36-59.55-52.22 -2.03-30.87 21.35-57.52 52.22-59.55 30.86-2.03 57.51 21.35 59.54 52.22 .15 2.43.15 4.88 0 7.32v0c-1.84 28.05-24.19 50.39-52.24 52.22Z"/></svg>

<svg xmlns="http://www.w3.org/2000/svg" width="512" height="512" viewBox="0 0 512 512"><path d="M402,76.94C362.61,37.63,310.78,16,256,16h-.37A208,208,0,0,0,48,224V324.67A79.62,79.62,0,0,0,98.29,399L122,408.42a15.92,15.92,0,0,1,9.75,11.72l10,50.13A32.09,32.09,0,0,0,173.12,496H184a8,8,0,0,0,8-8V448.45c0-8.61,6.62-16,15.23-16.43A16,16,0,0,1,224,448v40a8,8,0,0,0,8,8h0a8,8,0,0,0,8-8V448.45c0-8.61,6.62-16,15.23-16.43A16,16,0,0,1,272,448v40a8,8,0,0,0,8,8h0a8,8,0,0,0,8-8V448.45c0-8.61,6.62-16,15.23-16.43A16,16,0,0,1,320,448v40a8,8,0,0,0,8,8h10.88a32.09,32.09,0,0,0,31.38-25.72l10-50.14A16,16,0,0,1,390,408.42L413.71,399A79.62,79.62,0,0,0,464,324.67v-99C464,169.67,442,116.86,402,76.94ZM171.66,335.88a56,56,0,1,1,52.22-52.22A56,56,0,0,1,171.66,335.88ZM281,397.25A16.37,16.37,0,0,1,271.7,400H240.3a16.37,16.37,0,0,1-9.28-2.75,16,16,0,0,1-6.6-16.9l15.91-47.6C243,326,247.25,321,254,320.13c8.26-1,14,2.87,17.61,12.22l16,48A16,16,0,0,1,281,397.25Zm66.68-61.37a56,56,0,1,1,52.22-52.22A56,56,0,0,1,347.66,335.88Z"/></svg>
